packages/icon/src/svg/Social/MdDribbbleFilled.svg

<svg height="40" viewBox="0 0 40 40" width="40" xmlns="http://www.w3.org/2000/svg"><path d="m13 0c7.1786847 0 13 5.82131525 13 13 0 7.1794858-5.8209163 13-13 13-7.17988475 0-13-5.8201153-13-13 0-7.17908374 5.82051421-13 13-13zm0 5c-4.41122581 0-8 3.58877419-8 8 0 4.4112258 3.58877419 8 8 8 4.4112258 0 8-3.5887742 8-8 0-4.41122581-3.5887742-8-8-8zm1.2114839 9.1187097c.9593548 2.493 1.3560967 4.5823548 1.4577096 5.1818709-2.1971612.9359033-4.8391935.6791291-6.86348382-.8994193.71377419-1.459129 2.65090322-3.3426452 5.40577422-4.2824516zm5.5353548-.0236452c-.3045806 1.9013226-1.3959032 3.5433549-2.928871 4.5799355-.0700322-.4156774-.4337419-2.4160323-1.3274838-4.8720323 2.1412903-.3427742 4.0225806.2183226 4.2563548.2920968zm-6.5538064-2.2659032c.1956129.3828387.3824838.7714516.554 1.1596452-2.4709355.6959677-4.71593553 2.6944193-5.82358069 4.5905161-1.09138709-1.2114194-1.75667742-2.8138387-1.75667742-4.5689032 0-.069871.0013871-.1394194.00348387-.2088065.29896775.006129 3.61032259.0488065 7.02277424-.9724516zm5.0963225-3.13993549c.9517097 1.16277419 1.5280323 2.64377419 1.5430646 4.25661289-.2252904-.0476452-2.4844517-.505871-4.7581291-.2199355-.1855484-.4529355-.3606774-.8513871-.6005484-1.3423871 2.5264839-1.0315161 3.6715484-2.49941933 3.8156129-2.69429029zm-8.1944838-1.8627742c.1801613.24706452 1.4012258 1.93922581 2.5334516 3.95190319-3.19635486.8488065-6.01161292.8365807-6.31722583.8325484.44309678-2.12041933 1.87206452-3.88274191 3.78377423-4.78445159zm7.4348387 1.07258065c-.1229032.17506451-1.1515162 1.5576129-3.5813226 2.46835484-1.1197419-2.05729033-2.3608065-3.74735484-2.5496774-4.00025807 2.1669677-.52235484 4.4505161.04096774 6.131 1.53190323z" fill="#2F313A" transform="translate(7 7)"/></svg>

<?xml version="1.0" encoding="UTF-8"?>
<svg width="40px" height="40px" viewBox="0 0 40 40" version="1.1" xmlns="http://www.w3.org/2000/svg" xmlns:xlink="http://www.w3.org/1999/xlink">
    <title>Vector Files/40x40/Flattened/Social/Dribbble (Filled)</title>
    <g id="40x40/Flattened/Social/Dribbble-(Filled)" stroke="none" stroke-width="1" fill="none" fill-rule="evenodd">
        <g id="Icon" transform="translate(7.000000, 7.000000)" fill="#2F313A" fill-rule="nonzero">
            <path d="M13,0 C20.1786847,0 26,5.82131525 26,13 C26,20.1794858 20.1790837,26 13,26 C5.82011525,26 0,20.1798847 0,13 C0,5.82091626 5.82051421,0 13,0 Z M13,5 C8.58877419,5 5,8.58877419 5,13 C5,17.4112258 8.58877419,21 13,21 C17.4112258,21 21,17.4112258 21,13 C21,8.58877419 17.4112258,5 13,5 Z M14.2114839,14.1187097 C15.1708387,16.6117097 15.5675806,18.7010645 15.6691935,19.3005806 C13.4720323,20.2364839 10.83,19.9797097 8.80570968,18.4011613 C9.51948387,16.9420323 11.4566129,15.0585161 14.2114839,14.1187097 Z M19.7468387,14.0950645 C19.4422581,15.9963871 18.3509355,17.6384194 16.8179677,18.675 C16.7479355,18.2593226 16.3842258,16.2589677 15.4904839,13.8029677 C17.6317742,13.4601935 19.5130645,14.0212903 19.7468387,14.0950645 Z M13.1930323,11.8291613 C13.3886452,12.212 13.5755161,12.6006129 13.7470323,12.9888065 C11.2760968,13.6847742 9.03109677,15.6832258 7.92345161,17.5793226 C6.83206452,16.3679032 6.16677419,14.7654839 6.16677419,13.0104194 C6.16677419,12.9405484 6.16816129,12.871 6.17025806,12.8016129 C6.46922581,12.8077419 9.78058065,12.8504194 13.1930323,11.8291613 Z M18.2893548,8.68922581 C19.2410645,9.852 19.8173871,11.333 19.8324194,12.9458387 C19.607129,12.8981935 17.3479677,12.4399677 15.0742903,12.7259032 C14.8887419,12.2729677 14.7136129,11.8745161 14.4737419,11.3835161 C17.0002258,10.352 18.1452903,8.88409677 18.2893548,8.68922581 Z M10.094871,6.82645161 C10.2750323,7.07351613 11.4960968,8.76567742 12.6283226,10.7783548 C9.43196774,11.6271613 6.61670968,11.6149355 6.31109677,11.6109032 C6.75419355,9.49048387 8.18316129,7.72816129 10.094871,6.82645161 Z M17.5297097,7.89903226 C17.4068065,8.07409677 16.3781935,9.45664516 13.9483871,10.3673871 C12.8286452,8.31009677 11.5875806,6.62003226 11.3987097,6.36712903 C13.5656774,5.84477419 15.8492258,6.40809677 17.5297097,7.89903226 Z" id="Combined-Shape"></path>
        </g>
    </g>
</svg>
